X:1
T:M'amo tanto
T:Benedetto Ferrari
T:Source : Musiche Varie a voce sola---Libro terzo---Venetia---B.Magni---1641. Editor : André Vierendeels (19/01/17).
T:Notes : Original clefs : C1, F4 Original note values have been halved in 3-beat measures Figures in BC are notated in original print
T:M'amo tanto
T:©
T:©
T:©
T:©
C:Benedetto Ferrari
Z:©
%%score 1 2
L:1/8
Q:1/4=120
M:6/4
K:F
V:1 treble nm="Soprano" snm="S"
V:2 bass nm="MusicXML Part"
V:1
 FE FG A2 BA GF ED | C3 F E2 D4 D2 | G3 FED E4 G2 | c3 BAG A3 ABc |[M:4/4] c4 d2 z2 | %5
w: M'a- * * * mo tan- * * * * *|* to co- stei che|tan- to'i som- mi Dei non|a- ma- no la su, la- * *|su, _|
w: For- * * * ce che _ _ _ _ _|_ m'in- gan- no per-|ch'i- o me non tro- vo|tan- to di- e- tro e _ _|bon- tà,|
w: Non _ _ _ mi vuo _ _ _ _ _|_ dis- pe- rar se|non mi vuol a- mar, ben|tem- po an- * * co _ _|ver- rà,|
[M:6/4] z2 G4- G3 A B2 | G2 G2 G2 z6 | z2 F4- F3 G A2 | F2 F2 F2 z6 ::[M:4/4] AG FG/A/ D2 z2 | %10
w: ho- * ra non|m'a- ma piu|ho- * ra non|m'a- ma piu,|me- ra- vi- glia non è,|
w: quant' _ in le|è bel- tra|quant' _ in le|è bel- tra,|ma nel re- gno d'a- mor,|
w: che _ nes- sun|l'a- me- ra,|che _ nes- sun|l'a- me- ra,|vo- str'in- sta- bil de- sir,|
 dc Bc/d/ G2 z2 |[M:6/4] z2 z2 G2 ED EF GE | FE FG AF GF GA BG | AG A=B cA BA Bcdc | =B4 A2 A6 | %15
w: me- ra- vi- glia non è|se va- * * * * *||* * * * * * * * * * ria hu-|mor è fè|
w: ma nel re- gno d'a- mor,|del par- * * * * *||* * * * * * * * * * ti- và|o- gni cor|
w: vo- str'in- sta- bil de- sir,|O Don- * * * * *||* * * * * * * * * * ne vuio|se- * guir|
 z2 z2 C2 C3 CC=B, | C2 C2 _E2 E3 EED | _E2 E2 AB G2 G2 z2 | z2 z2 AB G2 G4 | z2 z2 GA F2 F2 z2 | %20
w: al mon- do per na-|tu- ra, al mon- do per na-|tu- ra tu- to pas- sa,|e non ndu- ra,|tut- to pas- sa|
w: ah non puo don- n'a-|man- te, ah non puo don- n'a-|man- te es- ser bel- la|e co- stan- te,|es- ser bel- la|
w: vuo'a- mar con men- te|scal- tra, vuo'a- mar con men- te|scal- tra hog- gi u- na,|di- man al- tra,|hog- gi u- na|
 z2 z2 GA F2 F4 |[M:3/4] z6 :| %22
w: e non du- ta.||
w: e co- stan- te||
w: di- man al- tra.||
V:2
"^BC" F,,6 G,,6 | A,,6 B,,6 | =B,,6 C,4- C,D, | E,6 F,6 |[M:4/4] B,,8 |[M:6/4] =B,,6 C,2 _E,4 | %6
"^4""^#" D,2 D,,4 G,,3 A,, B,,C, |"^6" A,,6 B,,2 _D,4 | C,2 C,,4 F,,6 ::[M:4/4] F,4 B,,4- | %10
"^5" B,,4 =B,,4 |[M:6/4] z2 =B,,4 C,6 | D,6 E,6 | F,6 D,6 | E,6 A,,6 | A,6 G,6 | C,6 B,,6 | %17
 _E,6- E,4 D,E, |"^4""^#" C,6 D,2 D,,4 |"^6" G,,6 A,,4 C,D, |"^4 3" B,,6 C,2 C,,4 |[M:3/4] F,,6 :| %22

